X:1712
T:Donald Bane
P:Donald Bane
C:Traditional?
R:Strathspey (8x32)
B:RSCDS 17-12
Z:Anselm Lingnau <anselm@strathspey.org>
M:4/4
L:1/8
K:A
a|"A"e/e/e e>d c>d e>c|A>e c<a "D"f2 "E7"e>a|\
  "A"e/e/e e>d "F#m"c>d e>c|"Bm"B/B/B c>e "D"f2 "E7"e a|
  "A"e/e/e e>d c>d e>c|A>e c<a "D"f2 "E7"e>a|\
  "A"e/e/e e>d "F#m"c>d e>c|"Bm"B/B/B c>e "D"f2 "E7"e||
g|"A"a>g a>f e>c A>g|"A"a>e "F#m"f>a "D"f2 "E7"ef/g/|\
  "A"a>g a>f a>f e<c|"Bm"B/B/B c>e "D"f2 "E7"ef/g/|
  "A"a>g a>f e>c A>g|"A"a>g "F#m"a>f "D"f>e "E7"f>g|\
  "A"a>g a>f a>f e<c|"Bm"B/B/B c>e "D"f2 "E7"e|]
